X: 1
T:Girl I Left Behind Me
M:4/4
L:1/8
S:
R:Reel
K:G
gf | "G" e2 d2 B2 G2 | "C" ABAG E2 (3DEF | "G" G2 G2 GABc | "D" d4 B2 gf
 | "G" e2 d2 B2 G2 | "C" ABAG E2 G2 | "D" F2 A2 D2 EF |1 "G" G4 G2 gf :|
|2 "G" G4 G2 GA || "G" B2 d2 e2 f2 | "G" g2 d2 B2 A2 | "G" BGBd edef | "
G" g2 ag "D" f2 gf | "G" e2 d2 B2 G2 | "C" ABAG E2 G2 | "D" F2 A2 D2 EF
|1 "G" G4 G2 GA :||2 "G" G4 G2 ||
